X: 3462
T: Betty Black
R: barndance
M: 4/4
K: Dmajor
|:F|GFED A2 d2|GFED A,2 D2|GFED A2 d2|A,2 D2 D2:|
|:g2|fefg a2 A2|BABc d2 D2|fefg a2 A2|BABc d2:|
|:dD|EFEF G2 FE|FDFA dAFD|EFEF G2 FE|1 D2 d2 d2:|2 D2 d2-||
|:dd|f4 f4|Adfd edfd|f4 f4|Adec d2:|
|:dg|f2 d2 dcBA|FAGB Aceg|f2 d2 dcBA|A,2 D2 D2:|
|:c2|defg agfe|(3fga ec dcBA|defg agfe|(3fga ec d2:|

